X: 1
T:Ducking and Diving  "CYMRU"
M:C
L:1/8
Q:80
C:Trad
S:Reel
K:HP
|: {gde}d2{g}d{G}d{g}Ad{g}d{G}d|
AB{g}B{G}B{g}Gd{g}cB|
{gcd}c2{g}Bc{g}cA{g}BA|  !
{gcecG}c2{g}cB{g}cB{GAG}A2| |
{gde}d2{g}d{G}d{g}Ad{g}d{G}d|
AB{g}B{G}B{g}Gd{g}cB|  !
{gcd}c2{g}Bc{g}cA{g}Bc|
{gdedc}d2{g}de{Gdc}d2{g}de:| |:
{g}f2{g}fe{g}fd{g}d{c}d|  !
{g}dB{g}B{G}BGd{g}cB|
{gcd}c2{g}Bc{g}cA{g}BA|
{gcecG}c2{g}cd{c}de{A}ef| |  !
{g}f2{g}fe{g}fd{g}d{c}d|
{g}dB{g}B{G}BGd{g}cB|
{gcd}c2{g}Bc{g}cA{g}Bc|  !
{gdedc}d2{g}de{Gdc}d2{g}de:| |:
{g}f2{g}fe{g}fd{g}d{c}d|
{g}dB{g}B{G}BGd{g}cB|  !
{gcd}c2{g}Bc{g}cA{g}BA|
{gcecG}c2{g}cd{c}de{A}ef| |
{g}f2{g}fe{g}fd{g}d{c}d|  !
{g}dB{g}B{G}BGd{g}cB|
{gcd}c2{g}Bc{g}cA{g}Bc|
{gdedc}d2{g}de{Gdc}d3A:| |:  !
{g}Ad{G}dA{g}Af{e}fA|
{gBeBG}B2{g}Bd{G}de{A}ed|
{gcd}c2{g}Bc{g}cA{g}BA|  !
{gcecG}c2{g}cB{g}cA{g}A{d}A| |
{g}Ad{G}dA{g}Af{e}fA|
{gBeBG}B2{g}Bd{G}de{A}ed|  !
{gcd}c2{g}Bc{g}cA{g}Bc|
{gdedc}d2{g}de{Gdc}d3e:| |:
{g}fa{g}a{g}aef{e}f{e}f|  !
Bd{c}d{c}d{g}de{A}ed|
{gcd}c2{g}Bc{g}cA{g}BA|
{gcecG}c2{g}cd{c}de{g}e{A}e| |  !
{g}fa{g}a{g}aef{e}f{e}f|
Bd{c}d{c}d{g}de{A}ed|
{gcd}c2{g}Bc{g}cA{g}Bc|  !
{gdedc}d2{g}de{Gdc}d4:|
